X: 1204
M: 6/8
L: 1/8
K: D
f2d g2e | a3 faf | d2f ecA | dfa e2A |\
f2d g2e | a3 faf | d2f ABc | d3- d2 H|]
e2e f2f | gfg B2d | cec ABc | dfa e2A |\
e2e f2f | gfg bge | dcd dfa | eAB "^da Capo"cde |]

